img/24.svg

<svg width="107" height="97" viewBox="0 0 107 97" fill="none" xmlns="http://www.w3.org/2000/svg">
<path d="M43.3499 42.7547C36.2653 42.7547 30.5015 48.5185 30.5015 55.6031C30.5015 62.0785 35.3046 65.9445 43.3499 65.9445C51.3952 65.9445 56.1982 62.0785 56.1982 55.6031C56.1982 48.5185 50.4345 42.7547 43.3499 42.7547ZM43.3499 62.8105C39.7219 62.8105 33.6353 61.8741 33.6353 55.6029C33.6353 50.246 37.9932 45.8882 43.3499 45.8882C48.7064 45.8882 53.0645 50.246 53.0645 55.6029C53.0645 61.8741 46.9779 62.8105 43.3499 62.8105Z" fill="#A07B50"/>
<path d="M37.0824 30.2198C33.8797 30.2198 31.755 34.1809 31.755 36.8008C31.755 39.7382 34.1447 42.1282 37.0824 42.1282C40.0201 42.1282 42.4098 39.7384 42.4098 36.8008C42.4098 34.1807 40.2851 30.2198 37.0824 30.2198ZM37.0824 38.9943C35.8728 38.9943 34.8887 38.0104 34.8887 36.8005C34.8887 35.3184 36.1393 33.3533 37.0824 33.3533C38.0255 33.3533 39.2761 35.3184 39.2761 36.8005C39.2761 38.0101 38.292 38.9943 37.0824 38.9943Z" fill="#A07B50"/>
<path d="M49.6173 30.2198C46.4146 30.2198 44.2899 34.1809 44.2899 36.8008C44.2899 39.7382 46.6796 42.1282 49.6173 42.1282C52.555 42.1282 54.9447 39.7384 54.9447 36.8008C54.9447 34.1807 52.82 30.2198 49.6173 30.2198ZM49.6173 38.9943C48.4077 38.9943 47.4236 38.0104 47.4236 36.8005C47.4236 35.3184 48.6741 33.3533 49.6173 33.3533C50.5604 33.3533 51.811 35.3184 51.811 36.8005C51.811 38.0101 50.8269 38.9943 49.6173 38.9943Z" fill="#A07B50"/>
<path d="M59.6451 37.7408C56.4424 37.7408 54.3177 41.7019 54.3177 44.3217C54.3177 47.2592 56.7074 49.6491 59.6451 49.6491C62.5828 49.6491 64.9725 47.2594 64.9725 44.3217C64.9725 41.7017 62.8478 37.7408 59.6451 37.7408ZM59.6451 46.5152C58.4355 46.5152 57.4514 45.5313 57.4514 44.3215C57.4514 42.8394 58.702 40.8743 59.6451 40.8743C60.5883 40.8743 61.8388 42.8394 61.8388 44.3215C61.8388 45.5311 60.8547 46.5152 59.6451 46.5152Z" fill="#A07B50"/>
<path d="M27.0544 37.7408C23.8517 37.7408 21.727 41.7019 21.727 44.3217C21.727 47.2592 24.1167 49.6491 27.0544 49.6491C29.9921 49.6491 32.3818 47.2594 32.3818 44.3217C32.3818 41.7017 30.2571 37.7408 27.0544 37.7408ZM27.0544 46.5152C25.8448 46.5152 24.8607 45.5313 24.8607 44.3215C24.8607 42.8394 26.1112 40.8743 27.0544 40.8743C27.9975 40.8743 29.2481 42.8394 29.2481 44.3215C29.2481 45.5311 28.264 46.5152 27.0544 46.5152Z" fill="#A07B50"/>
<path d="M46.6925 52.7826H44.9168V51.0069C44.9168 50.1413 44.2152 49.4401 43.35 49.4401C42.4848 49.4401 41.7833 50.1415 41.7833 51.0069V52.7826H40.0075C39.1421 52.7826 38.4408 53.484 38.4408 54.3494C38.4408 55.215 39.1423 55.9161 40.0075 55.9161H41.7833V57.6919C41.7833 58.5575 42.4848 59.2586 43.35 59.2586C44.2152 59.2586 44.9168 58.5573 44.9168 57.6919V55.9161H46.6925C47.5579 55.9161 48.2593 55.2148 48.2593 54.3494C48.2593 53.484 47.5577 52.7826 46.6925 52.7826Z" fill="#A07B50"/>
<path d="M62.1969 3.26783C57.4824 1.74412 52.547 0.971924 47.5281 0.971924C34.8327 0.971924 22.8974 5.91566 13.9204 14.8926C4.94374 23.8695 0 35.8048 0 48.5C0 61.1952 4.94373 73.1305 13.9207 82.1076C22.8976 91.0845 34.8329 96.0283 47.5283 96.0283C48.3937 96.0283 49.095 95.3269 49.095 94.4615C49.095 93.5959 48.3935 92.8948 47.5283 92.8948C35.6701 92.8948 24.5216 88.2768 16.1367 79.892C7.75165 71.5065 3.13372 60.3582 3.13372 48.5C3.13372 36.6418 7.75165 25.4935 16.1365 17.1084C24.5216 8.72316 35.6699 4.10564 47.5281 4.10564C52.2196 4.10564 56.8304 4.82706 61.2333 6.25003C62.0458 6.51356 62.9434 6.05317 63.2061 5.24106C63.4688 4.42832 63.0094 3.53031 62.1969 3.26783Z" fill="#A07B50"/>
<path d="M106.612 43.9273L101.11 37.6382C100.548 36.9959 99.5411 36.9284 98.8987 37.4906L94.516 41.3255C93.004 31.3688 88.319 22.0755 81.1356 14.8921C77.712 11.4685 73.8306 8.605 69.5984 6.38141C68.8425 5.9835 67.8797 6.28361 67.4825 7.03929C67.0854 7.79519 67.3847 8.75798 68.1405 9.15526C72.0929 11.2324 75.7194 13.908 78.9195 17.1082C86.4058 24.5944 90.8429 34.0996 91.751 44.5959C91.8594 45.8481 93.3957 46.4696 94.3438 45.64L99.7827 40.8808L103.222 44.8113L91.0304 55.4789C90.0584 56.3295 88.5633 56.3295 87.5911 55.4789L75.3996 44.8113L78.8389 40.8808L83.8392 45.2561C84.8963 46.1808 86.5911 45.2868 86.4273 43.8937C84.1082 24.1883 67.3851 9.3283 47.5282 9.3283C25.9288 9.3283 8.35659 26.9005 8.35659 48.4999C8.35659 70.0993 25.9288 87.6715 47.5282 87.6715C48.3936 87.6715 49.095 86.9702 49.095 86.1046C49.095 85.2389 48.3934 84.5378 47.5282 84.5378C27.6569 84.5378 11.4903 68.3714 11.4903 48.4999C11.4903 28.6284 27.6567 12.462 47.528 12.462C64.3199 12.462 78.6765 24.0132 82.544 39.9587L79.7235 37.4908C79.0811 36.9289 78.0742 36.9966 77.5127 37.6384L72.0099 43.9275C71.44 44.5787 71.506 45.5685 72.1574 46.1384L85.528 57.8375C87.6666 59.7088 90.9558 59.7088 93.0945 57.8375L106.465 46.1384C107.116 45.5685 107.182 44.5787 106.612 43.9273Z" fill="#A07B50"/>
<path d="M73.4335 90.3873H61.8029C66.9836 86.5323 75.0005 79.3615 75.0005 71.8982C75.0005 66.4266 70.5487 61.9748 65.077 61.9748C59.6054 61.9748 55.1536 66.4266 55.1536 71.8982C55.1536 72.7638 55.8552 73.465 56.7204 73.465C57.5856 73.465 58.2871 72.7636 58.2871 71.8982C58.2871 68.1543 61.3331 65.1085 65.0768 65.1085C68.8206 65.1085 71.8665 68.1543 71.8665 71.8982C71.8665 80.9205 56.0732 90.5147 55.9139 90.6103C55.2987 90.9793 55.0096 91.7444 55.2268 92.4282C55.431 93.0715 56.0456 93.5208 56.7202 93.5208H73.4333C74.2987 93.5208 75 92.8194 75 91.954C75.0005 91.0886 74.2989 90.3873 73.4335 90.3873Z" fill="#A07B50"/>
<path d="M98.5034 83.7022H95.0563V63.5419C95.0563 62.8996 94.6492 62.3078 94.0496 62.0783C93.4101 61.8336 92.665 62.0434 92.2475 62.5862L75.5344 84.3132C74.7566 85.3245 75.503 86.8355 76.7764 86.8355H91.9227V91.9539C91.9227 92.8195 92.6243 93.5207 93.4895 93.5207C94.3547 93.5207 95.0563 92.8193 95.0563 91.9539V86.8355H98.5034C99.3689 86.8355 100.07 86.1341 100.07 85.2687C100.07 84.4033 99.3686 83.7022 98.5034 83.7022ZM91.9225 83.7022H79.9582L91.9225 68.1487V83.7022Z" fill="#A07B50"/>
</svg>

<svg width="107" height="97" fill="none" xmlns="http://www.w3.org/2000/svg"><path d="M43.35 42.755c-7.085 0-12.849 5.764-12.849 12.848 0 6.475 4.804 10.342 12.849 10.342s12.848-3.866 12.848-10.342c0-7.084-5.764-12.848-12.848-12.848zm0 20.055c-3.628 0-9.715-.936-9.715-7.207 0-5.357 4.358-9.715 9.715-9.715 5.356 0 9.715 4.358 9.715 9.715 0 6.271-6.087 7.207-9.715 7.207zm-6.268-32.59c-3.202 0-5.327 3.96-5.327 6.58a5.333 5.333 0 005.327 5.328 5.333 5.333 0 005.328-5.327c0-2.62-2.125-6.581-5.328-6.581zm0 8.774A2.196 2.196 0 0134.89 36.8c0-1.482 1.25-3.447 2.193-3.447.944 0 2.194 1.965 2.194 3.447 0 1.21-.984 2.194-2.194 2.194zm12.535-8.774c-3.202 0-5.327 3.96-5.327 6.58a5.333 5.333 0 005.327 5.328 5.333 5.333 0 005.328-5.327c0-2.62-2.125-6.581-5.328-6.581zm0 8.774a2.196 2.196 0 01-2.193-2.194c0-1.482 1.25-3.447 2.193-3.447.943 0 2.194 1.965 2.194 3.447 0 1.21-.984 2.194-2.194 2.194zm10.028-1.254c-3.203 0-5.327 3.962-5.327 6.582a5.333 5.333 0 005.327 5.327 5.333 5.333 0 005.327-5.327c0-2.62-2.124-6.581-5.327-6.581zm0 8.775a2.196 2.196 0 01-2.194-2.194c0-1.482 1.251-3.447 2.194-3.447.943 0 2.194 1.965 2.194 3.447 0 1.21-.984 2.194-2.194 2.194zM27.054 37.74c-3.202 0-5.327 3.962-5.327 6.582a5.333 5.333 0 005.327 5.327 5.333 5.333 0 005.328-5.327c0-2.62-2.125-6.581-5.328-6.581zm0 8.775a2.196 2.196 0 01-2.193-2.194c0-1.482 1.25-3.447 2.193-3.447.944 0 2.194 1.965 2.194 3.447 0 1.21-.984 2.194-2.194 2.194z" fill="#A07B50"/><path d="M46.693 52.783h-1.776v-1.776a1.567 1.567 0 10-3.134 0v1.776h-1.776a1.567 1.567 0 100 3.133h1.776v1.776a1.567 1.567 0 103.134 0v-1.776h1.776a1.567 1.567 0 100-3.133z" fill="#A07B50"/><path d="M62.197 3.268A47.623 47.623 0 0047.528.972c-12.695 0-24.63 4.944-33.608 13.92C4.944 23.87 0 35.806 0 48.5c0 12.695 4.944 24.63 13.92 33.608 8.978 8.977 20.913 13.92 33.608 13.92a1.567 1.567 0 100-3.133c-11.858 0-23.006-4.618-31.391-13.003C7.752 71.507 3.134 60.358 3.134 48.5s4.618-23.006 13.003-31.392C24.522 8.723 35.67 4.106 47.528 4.106c4.692 0 9.302.721 13.705 2.144a1.581 1.581 0 001.973-1.009 1.582 1.582 0 00-1.01-1.973z" fill="#A07B50"/><path d="M106.612 43.927l-5.502-6.289a1.583 1.583 0 00-2.211-.147l-4.383 3.834a47.533 47.533 0 00-13.38-26.433 47.661 47.661 0 00-11.538-8.51 1.581 1.581 0 00-2.115.657 1.582 1.582 0 00.657 2.116 44.546 44.546 0 0110.78 7.953c7.486 7.486 11.923 16.992 12.83 27.488.108 1.252 1.645 1.874 2.593 1.044l5.439-4.76 3.439 3.931L91.03 55.48c-.972.85-2.467.85-3.439 0L75.4 44.81l3.439-3.93 5 4.375c1.057.925 2.752.03 2.588-1.362C84.108 24.188 67.385 9.328 47.528 9.328c-21.6 0-39.171 17.573-39.171 39.172 0 21.6 17.572 39.171 39.171 39.171a1.567 1.567 0 100-3.133C27.657 84.538 11.49 68.37 11.49 48.5c0-19.872 16.167-36.038 36.038-36.038 16.792 0 31.149 11.551 35.016 27.497l-2.82-2.468a1.583 1.583 0 00-2.211.147l-5.503 6.29a1.567 1.567 0 00.147 2.21l13.371 11.7c2.139 1.87 5.428 1.87 7.566 0l13.371-11.7c.651-.57.717-1.56.147-2.21z" fill="#A07B50"/><path d="M73.433 90.387h-11.63C66.983 86.532 75 79.362 75 71.898c0-5.471-4.452-9.923-9.924-9.923-5.472 0-9.923 4.452-9.923 9.923a1.567 1.567 0 103.133 0 6.797 6.797 0 016.79-6.79 6.797 6.797 0 016.79 6.79c0 9.023-15.794 18.617-15.953 18.712a1.582 1.582 0 00-.687 1.818 1.582 1.582 0 001.493 1.093h16.713a1.567 1.567 0 000-3.134zm25.07-6.685h-3.447v-20.16c0-.642-.407-1.234-1.006-1.464a1.582 1.582 0 00-1.802.508L75.534 84.313c-.777 1.011-.031 2.522 1.242 2.522h15.147v5.119a1.567 1.567 0 103.133 0v-5.118h3.447a1.566 1.566 0 100-3.134zm-6.58 0H79.957L91.923 68.15v15.553z" fill="#A07B50"/></svg>
